app/dist/common/images/iqvia.svg

<svg height="18" viewBox="0 0 18 18" width="18" xmlns="http://www.w3.org/2000/svg"><path d="m0 0h18v18h-18z" fill="#f0f3fa"/><g fill="#00a1df"><rect height="1" rx=".5" width="8" x="6" y="5"/><rect height="1" rx=".5" width="11" x="3" y="7"/><rect height="1" rx=".5" width="12.0001" x="2" y="9"/><rect height="1" rx=".5" width="11" x="3" y="11"/><rect height="1" rx=".5" width="5" x="6" y="13"/></g><rect fill="#7fa9c3" height="1" rx=".5" width="7" x="7" y="5"/><rect fill="#7fa9c3" height="1" rx=".5" width="9" x="5" y="7"/><rect fill="#7fa9c3" height="1" rx=".5" width="10.0001" x="4" y="9"/><rect fill="#7fa9c3" height="1" rx=".5" width="9" x="5" y="11"/><rect fill="#7fa9c3" height="1" rx=".5" width="7" x="7" y="13"/><path d="m11.9174 9.9978c.0543-.32452.0826-.65786.0826-.9978 0-.00059 0-.00117 0-.00176h1.5c.2762 0 .5.22376.5.49978s-.2238.49978-.5.49978zm-.7185 1.9994c.1827-.3161.3373-.6504.4605-.9995h1.8406c.2762 0 .5.2237.5.4997 0 .2761-.2238.4998-.5.4998zm-.0018-5.99764c-.2073-.35826-.4506-.69309-.7249-.99956h3.0278c.2762 0 .5.22376.5.49978s-.2238.49978-.5.49978zm.7197 1.99912c-.0578-.344-.1448-.67807-.2585-.99956h1.8417c.2762 0 .5.22376.5.49978s-.2238.49978-.5.49978zm-2.59899 6.00132c.4261-.2833.81389-.6196 1.15399-.9996h3.0282c.2762 0 .5.2238.5.4998s-.2238.4998-.5.4998z" fill="#005487"/></svg>

<!-- by TradingView --><svg width="18" height="18" viewBox="0 0 18 18" xmlns="http://www.w3.org/2000/svg"><rect width="18" height="18" fill="#F0F3FA"/><rect x="6" y="5" width="8" height="1" rx="0.5" fill="#00A1DF"/><rect x="3" y="7" width="11" height="1" rx="0.5" fill="#00A1DF"/><rect x="2" y="9" width="12.0001" height="1" rx="0.5" fill="#00A1DF"/><rect x="3" y="11" width="11" height="1" rx="0.5" fill="#00A1DF"/><rect x="6" y="13" width="5" height="1" rx="0.5" fill="#00A1DF"/><rect x="7" y="5" width="7" height="1" rx="0.5" fill="#7FA9C3"/><rect x="5" y="7" width="9" height="1" rx="0.5" fill="#7FA9C3"/><rect x="4" y="9" width="10.0001" height="1" rx="0.5" fill="#7FA9C3"/><rect x="5" y="11" width="9" height="1" rx="0.5" fill="#7FA9C3"/><rect x="7" y="13" width="7" height="1" rx="0.5" fill="#7FA9C3"/><path d="M11.9174 9.9978C11.9717 9.67328 12 9.33994 12 9C12 8.99941 12 8.99883 12 8.99824H13.5C13.7762 8.99824 14 9.222 14 9.49802C14 9.77404 13.7762 9.9978 13.5 9.9978H11.9174ZM11.1989 11.9972C11.3816 11.6811 11.5362 11.3468 11.6594 10.9977H13.5C13.7762 10.9977 14 11.2214 14 11.4974C14 11.7735 13.7762 11.9972 13.5 11.9972H11.1989ZM11.1971 5.99956C10.9898 5.6413 10.7465 5.30647 10.4722 5H13.5C13.7762 5 14 5.22376 14 5.49978C14 5.7758 13.7762 5.99956 13.5 5.99956H11.1971ZM11.9168 7.99868C11.859 7.65468 11.772 7.32061 11.6583 6.99912H13.5C13.7762 6.99912 14 7.22288 14 7.4989C14 7.77492 13.7762 7.99868 13.5 7.99868H11.9168ZM9.31781 14C9.74391 13.7167 10.1317 13.3804 10.4718 13.0004H13.5C13.7762 13.0004 14 13.2242 14 13.5002C14 13.7762 13.7762 14 13.5 14H9.31781Z" fill="#005487"/></svg>
